Sources/FrostedUI/Resources/Icons.xcassets/telegram16.imageset/telegram-16.svg

<svg width="16" height="16" viewBox="0 0 16 16" fill="none" xmlns="http://www.w3.org/2000/svg" data-fui-icon="true">
  <path
    d="M13.5439 2.42676C13.6039 2.43306 13.6689 2.44312 13.7354 2.45898C13.8324 2.48215 13.959 2.52354 14.0859 2.59863L14.2119 2.68555L14.2158 2.68848C14.4334 2.86664 14.5237 3.08761 14.5645 3.2373L14.5918 3.35938L14.5938 3.37109C14.612 3.48477 14.6393 3.73945 14.6162 3.9668C14.4467 5.74296 13.7218 9.99154 13.3564 11.9385C13.1911 12.8251 12.7867 13.5063 12.0449 13.5742C11.5402 13.6204 11.1235 13.4468 10.7891 13.251C10.6238 13.1542 10.4649 13.0441 10.3213 12.9424L9.89551 12.6465C9.40473 12.3256 9.01973 12.0656 8.64258 11.8096C8.26556 11.5536 7.8961 11.302 7.42871 10.9951C7.12354 10.7947 6.85763 10.5637 6.70703 10.2764C6.53271 9.94343 6.5492 9.60534 6.67676 9.31543C6.7855 9.06882 6.97075 8.86719 7.1123 8.72363C7.14847 8.68697 7.18622 8.64963 7.22363 8.61328C6.98222 8.77532 6.7288 8.94455 6.46484 9.12207C5.96695 9.46338 5.43998 9.68543 4.90039 9.67383C4.62793 9.66795 4.2809 9.59581 3.96777 9.51758C3.64014 9.43572 3.29464 9.33239 3.00391 9.23828H3.00293C2.70648 9.14203 2.31978 9.03318 2.05078 8.90332C1.90883 8.83476 1.72782 8.72885 1.58789 8.55762C1.42788 8.36151 1.34858 8.11155 1.38281 7.84082H1.38379C1.42852 7.48584 1.67345 7.25194 1.85547 7.11719C2.05506 6.9695 2.31107 6.8429 2.59473 6.73047C5.8052 5.33658 7.9519 4.4148 9.0293 3.96777C10.5615 3.33273 11.5015 2.95336 12.1123 2.73242C12.7124 2.51537 13.061 2.42366 13.3809 2.41797L13.5439 2.42676ZM13.3701 3.6709C13.2655 3.67809 13.0672 3.71683 12.5381 3.9082C12.2485 4.01296 11.8747 4.15676 11.3818 4.35449L9.50781 5.12207C8.43935 5.5654 6.29629 6.4858 3.07422 7.88477L3.05469 7.89258C3.03096 7.90199 3.00818 7.91181 2.98633 7.9209C3.03234 7.9356 3.08061 7.95169 3.13184 7.96777C3.21205 7.99296 3.29918 8.01978 3.38867 8.04883L3.82324 8.18262C3.97299 8.22645 4.1248 8.26926 4.27051 8.30566C4.5766 8.38214 4.8066 8.42122 4.92773 8.42383C5.10624 8.42757 5.37661 8.35379 5.75879 8.0918L5.76367 8.08887L7.75 6.75684C8.32125 6.37525 8.80179 6.05555 9.19141 5.79883C9.58033 5.54257 9.88151 5.34668 10.0928 5.21289C10.1977 5.14646 10.2853 5.09278 10.3516 5.05371C10.384 5.03457 10.4177 5.01508 10.4482 4.99902C10.4555 4.99504 10.5396 4.94875 10.6377 4.92676C10.6678 4.91998 10.7738 4.89461 10.8945 4.89551C11.025 4.89655 11.2355 4.92826 11.4199 5.09375H11.4189C11.6032 5.25809 11.6573 5.46321 11.6738 5.5752C11.6905 5.68815 11.6848 5.80333 11.6621 5.89844L11.6611 5.89746C11.6372 5.99825 11.5943 6.07331 11.5781 6.10059C11.5557 6.1384 11.532 6.17251 11.5127 6.19824C11.4736 6.25029 11.4272 6.30558 11.3809 6.35742C11.2866 6.46298 11.1606 6.59207 11.0205 6.73242C10.7383 7.01513 10.3689 7.36848 10.001 7.71484C9.63208 8.06212 9.25937 8.40727 8.9707 8.6748C8.82621 8.80872 8.70331 8.92304 8.61133 9.00879C8.56536 9.05164 8.52774 9.087 8.5 9.11328C8.47327 9.13861 8.46173 9.14965 8.45996 9.15137L8.45898 9.15234C8.37278 9.24158 8.28679 9.32553 8.20996 9.39941C8.1303 9.47601 8.06289 9.53978 8.00195 9.60156C7.93584 9.66862 7.89193 9.71784 7.86426 9.75293C7.86812 9.7569 7.87148 9.76228 7.87598 9.7666C7.92478 9.81348 8.00048 9.87546 8.11426 9.9502C8.591 10.2632 8.96829 10.5198 9.34473 10.7754C9.72082 11.0307 10.0975 11.2854 10.5781 11.5996C10.7461 11.7093 10.9076 11.8253 11.0439 11.9219C11.1864 12.0227 11.3066 12.1059 11.4209 12.1729C11.6302 12.2953 11.7728 12.3342 11.9023 12.3291C11.9064 12.3245 11.9127 12.3188 11.9189 12.3105C11.9713 12.2412 12.0607 12.0699 12.1279 11.709V11.708C12.4944 9.75505 13.2093 5.55462 13.3721 3.84473V3.84082C13.3752 3.81049 13.3766 3.7596 13.373 3.69824C13.3725 3.68899 13.3708 3.67956 13.3701 3.6709Z"
    fill="currentColor"
  />
</svg>

<svg xmlns="http://www.w3.org/2000/svg" width="16" height="16" fill="none" data-fui-icon="true" viewBox="0 0 16 16"><path fill="currentColor" d="M13.544 2.427q.091.008.191.032c.097.023.224.065.35.14l.127.087.004.002c.217.179.308.4.349.55l.027.121.002.012c.018.114.045.368.022.596-.17 1.776-.894 6.025-1.26 7.971-.165.887-.57 1.568-1.311 1.636-.505.046-.921-.127-1.256-.323a7 7 0 0 1-.468-.309l-.425-.296c-.491-.32-.876-.58-1.253-.836s-.747-.508-1.214-.815c-.305-.2-.571-.431-.722-.719a1.08 1.08 0 0 1-.03-.96c.109-.247.294-.449.435-.592q.054-.056.112-.11l-.76.508c-.497.341-1.024.563-1.564.552-.272-.006-.62-.078-.932-.156a15 15 0 0 1-.964-.28h-.001c-.297-.096-.683-.205-.952-.335a1.3 1.3 0 0 1-.463-.345.93.93 0 0 1-.205-.717c.046-.355.29-.59.472-.724.2-.147.456-.274.74-.387a538 538 0 0 1 6.434-2.762c1.533-.635 2.473-1.015 3.083-1.236.6-.217.949-.308 1.269-.314zM13.37 3.67c-.104.007-.303.046-.832.237-.29.105-.663.249-1.156.446l-1.874.768a540 540 0 0 0-6.434 2.763l-.02.008-.068.028.146.047.257.08.434.135q.227.066.448.123c.306.076.536.115.657.118.178.004.449-.07.83-.332l.006-.003L7.75 6.757q.857-.573 1.441-.958t.902-.586a10 10 0 0 1 .355-.214c.008-.004.092-.05.19-.072.03-.007.136-.032.257-.031a.8.8 0 0 1 .525.198h-.001a.8.8 0 0 1 .255.481.9.9 0 0 1-.012.323.7.7 0 0 1-.084.203 1 1 0 0 1-.065.097q-.062.08-.132.16c-.094.105-.22.234-.36.374-.283.283-.652.636-1.02.983-.369.347-.742.692-1.03.96l-.511.476-.001.001c-.086.09-.172.174-.249.247-.08.077-.147.14-.208.203a2 2 0 0 0-.138.15l.012.015c.049.046.124.108.238.183.477.313.854.57 1.23.825.377.256.754.51 1.234.825.168.11.33.225.466.322.142.1.263.184.377.25.21.123.352.162.481.157l.017-.019c.052-.069.142-.24.209-.601v-.001c.366-1.953 1.081-6.153 1.244-7.863V3.84a1 1 0 0 0 .001-.143z"/></svg>
